X: 21041
M: 2/4
L: 1/16
K: Bb
V: 1 name="1"
d4 c2B2 | G4 B2G2 | F2d2 c2B2 | G2c=B cf=e_e |\
d4 c2B2 | G4 B2G2 | F2d2 cBcd | B2d2B2 H|]
c2c2 f4 | d2d2 f4 | e2fe d2ed | cBAG F4 |\
c2c2 f4 | d2d2 f4 | f=edc =Bcde | f=efg f_ed"^D.C."c |]
f2z2 =e2z2 | c2B2 A2B2 | c2ff f2f2 | f2z2 =e2z2 |\
e2z2 d2z2 | c2B2 A2c2 | BFGA Bcd"^D.C."e |]


